!!!!SEGMENT: pl-gd--ee-1638--007-015_marenzio-luca--il-terzo-libro-de-madrigalia-a-sei-voci-qual-ombra.krn
!!!cenid: 15xx:856
!!!COM: Marenzio, Luca
!!!COM-rismID: pe30003955
!!!CDT: ~1553-1599/08/22
!!!CNT: Italian
!!!GTL: Il Terzo Libro de madrigalia a sei voci
!!!OTL: Qual ombra
!!!OMV: 015
!!!PDT: 1585
!!!AGN:
!!!SMS-siglum: PL-GD
!!!SMS-shelfmark: Ee 1638
!!!SMS-variant:
!!!SMS-altvar:
!!!SMS-shelfwork: 007-015 G
!!!NIFC-rismSourceID: 1001202747
!!!NIFC-rismChildID: 990039250
!!!NIFC-islandoraID: pl-gd:57883
!!!URL-pdf-islandora: https://repozytorium.nifc.pl/islandora/object/pl-gd%3A57883/datastream/PDF/view
!!!URL-scan: https://polish.musicsources.pl/pl/lokalizacje/galeria/klocki-introligatorskie/655 @EN{Scan on Polish Music Sources Website} @PL{Skany w portalu Dziedzictwo Muzyki Polskiej w otwartym dostępie}
!!!ONB-nifc: UWAGA: zbiór na stronach: Canto: s. 694-704, Alto: s. 542-552, Tenore: s. 390-400, Basso: s. 237-248, Quinto: s. 85-96, Sesto: s. 3-14. Uwaga: utwory podzielone wg tytułów w spisach treści dostępnych na końcu każdej księgi głosowej.
!!!AIN: 1 alto 1 bass 1 quinto 1 sesto 1 soprn 1 tenor
!!!key:
**kern	**text	**kern	**text	**kern	**text	**kern	**text	**kern	**text	**kern	**text
*part6	*part6	*part5	*part5	*part4	*part4	*part3	*part3	*part2	*part2	*part1	*part1
*staff6	*staff6	*staff5	*staff5	*staff4	*staff4	*staff3	*staff3	*staff2	*staff2	*staff1	*staff1
*I"Sesto	*	*I"Quinto	*	*I"Basso	*	*I"Tenore	*	*I"Alto	*	*I"Canto	*
*I'S	*	*I'Q	*	*I'B	*	*I'T	*	*I'A	*	*I'C	*
*Isesto	*	*Iquinto	*	*Ibass	*	*Itenor	*	*Ialto	*	*Isoprn	*
*ICvox	*	*ICvox	*	*ICvox	*	*ICvox	*	*ICvox	*	*ICvox	*
*IG	*	*	*	*	*	*	*	*	*	*	*
*clefC4	*	*clefC1	*	*clefF4	*	*clefC4	*	*clefC3	*	*clefC1	*
*k[b-]	*	*k[b-]	*	*k[b-]	*	*k[b-]	*	*k[b-]	*	*k[b-]	*
*F:	*	*F:	*	*F:	*	*F:	*	*F:	*	*F:	*
*M2/1	*	*M2/1	*	*M2/1	*	*M2/1	*	*M2/1	*	*M2/1	*
*met(C)	*	*met(C)	*	*met(C)	*	*met(C)	*	*met(C)	*	*met(C)	*
=1-	=1-	=1-	=1-	=1-	=1-	=1-	=1-	=1-	=1-	=1-	=1-
*xywh-#11:4453,631,3357,813	*	*xywh-#93:4575,585,3361,844	*	*xywh-#245:4700,621,3350,759	*	*xywh-#397:4730,573,3345,705	*	*xywh-#549:4644,588,3324,808	*	*xywh-#701:4660,555,3369,740	*
!	!	!	!	!LO:TX:b:t=QVell'ombra	!	!	!	!	!	!LO:TX:a:B:t=Prestissimo	!
!LO:TX:b:t=QVell'ombra	!	!	!	!	!	!LO:TX:b:t=QVell'ombra	!	!	!	!	!
0r	.	1r	.	0r	.	0r	.	0r	.	1cc	QVell
.	.	1cc	QVell'	.	.	.	.	.	.	8f/	om-
.	.	.	.	.	.	.	.	.	.	8g/	.
.	.	.	.	.	.	.	.	.	.	8a\	.
.	.	.	.	.	.	.	.	.	.	8g/	.
.	.	.	.	.	.	.	.	.	.	8f/	.
.	.	.	.	.	.	.	.	.	.	8g/	.
.	.	.	.	.	.	.	.	.	.	8a\	.
.	.	.	.	.	.	.	.	.	.	8b-\	.
=2-	=2-	=2-	=2-	=2-	=2-	=2-	=2-	=2-	=2-	=2-	=2-
0r	.	8f/	om-	0r	.	0r	.	1r	.	2cc\	.
.	.	8g\	.	.	.	.	.	.	.	.	.
.	.	8a\	.	.	.	.	.	.	.	.	.
.	.	8g\	.	.	.	.	.	.	.	.	.
.	.	8f/	.	.	.	.	.	.	.	2cc\	-bra
.	.	8g\	.	.	.	.	.	.	.	.	.
.	.	8a\	.	.	.	.	.	.	.	.	.
.	.	8b-\	.	.	.	.	.	.	.	.	.
.	.	4cc\	.	.	.	.	.	1f	QVell'	4r	.
.	.	4.a\	-br'eſ-	.	.	.	.	.	.	4.cc\	eſ-
.	.	8a\	-ſer	.	.	.	.	.	.	8cc\	-ſer
.	.	4a\	vor-	.	.	.	.	.	.	4cc\	vo-
=3-	=3-	=3-	=3-	=3-	=3-	=3-	=3-	=3-	=3-	=3-	=3-
0r	.	1b-	-re-	0r	.	1r	.	8B-/	om-	1dd	-re-
.	.	.	.	.	.	.	.	8c/	.	.	.
.	.	.	.	.	.	.	.	8d\	.	.	.
.	.	.	.	.	.	.	.	8c/	.	.	.
.	.	.	.	.	.	.	.	8B-/	.	.	.
.	.	.	.	.	.	.	.	8c/	.	.	.
.	.	.	.	.	.	.	.	8d\	.	.	.
.	.	.	.	.	.	.	.	8e\	.	.	.
!	!	!LO:SIC:v:t=custos f	!	!	!	!	!	!	!	!LO:SIC:v:t=custos f	!
.	.	1a	-i	.	.	4r	.	4f\	.	1cc	-i
!	!	!LO:LB:g=original	!	!	!	!	!	!	!	!LO:LB:g=original	!
*	*	*xywh-#93:4592,1247,3335,696	*	*	*	*	*	*	*	*xywh-#701:4687,1202,3323,654	*
.	.	.	.	.	.	4.F/	eſ-	4.c\	-br'eſ-	.	.
.	.	.	.	.	.	8F/	-ſer	8c/	-ſer	.	.
.	.	.	.	.	.	4F/	vo-	4c/	vo-	.	.
=4-	=4-	=4-	=4-	=4-	=4-	=4-	=4-	=4-	=4-	=4-	=4-
1r	.	2r	.	0r	.	1B-	-re-	1d	-re-	4r	.
.	.	.	.	.	.	.	.	.	.	4f/	Che'l
.	.	4r	.	.	.	.	.	.	.	4.f/	di-
.	.	4f/	Che'l	.	.	.	.	.	.	.	.
.	.	.	.	.	.	.	.	.	.	8g\	-vi
4r	.	4.f/	di-	.	.	2F/	-i	1c	-i	4a\	ſe-
4F/	Che'l	.	.	.	.	.	.	.	.	4f/	-gue
.	.	8g/	-ui	.	.	.	.	.	.	.	.
4.F/	di	4a\	ſe-	.	.	4r	.	.	.	8f/	leg-
.	.	.	.	.	.	.	.	.	.	8g\	-gia-
.	.	4f/	-gue	.	.	4F/	Che'l	.	.	8a\	-dret-
8G/	ui	.	.	.	.	.	.	.	.	8b-\	-ta e
=5-	=5-	=5-	=5-	=5-	=5-	=5-	=5-	=5-	=5-	=5-	=5-
4A/	ſe-	8f/	leg-	0r	.	4.F/	di-	4r	.	2cc\	bel-
.	.	8g/	-gia-	.	.	.	.	.	.	.	.
!	!	!	!	!	!	!	!	!LO:SIC:v:t=custos c	!	!	!
4F/	-gue	8a\	-dret-	.	.	.	.	4c/	Che'l	.	.
!	!	!	!	!	!	!	!	!LO:LB:g=original	!	!	!
*	*	*	*	*	*	*	*	*xywh-#549:4644,1230,3324,691	*	*	*
.	.	8b-\	-ta e	.	.	8G/	-vi	.	.	.	.
8F/	leg-	2cc\	bel-	.	.	4A/	ſe-	4.c/	di	1a	-la
8G/	-gia-	.	.	.	.	.	.	.	.	.	.
!	!	!	!	!	!	!LO:SIC:v:t=custos F	!	!	!	!	!
8A/	-dret-	.	.	.	.	4F/	-gue	.	.	.	.
!	!	!	!	!	!	!LO:LB:g=original	!	!	!	!	!
*	*	*	*	*	*	*xywh-#397:4737,1237,3324,615	*	*	*	*	*
8B-\	-ta e	.	.	.	.	.	.	8B-/	vi	.	.
!LO:SIC:v:t=custos C	!	!	!	!	!	!	!	!	!	!	!
2c\	bel-	4cc\	-la	.	.	8F/	leg-	4A/	ſe-	.	.
!LO:LB:g=original	!	!	!	!	!	!	!	!	!	!	!
*xywh-#11:4505,1322,3261,638	*	*	*	*	*	*	*	*	*	*	*
.	.	.	.	.	.	8G/	-gia	.	.	.	.
.	.	4a\	e	.	.	8A/	dret-	4c/	-gue	.	.
.	.	.	.	.	.	8B-\	-ta e	.	.	.	.
2C/	-la	1g\	bel-	.	.	2c\	bel-	8c\	ieg-	8e/	leg-
.	.	.	.	.	.	.	.	8d\	-gia-	8f/	-gia-
.	.	.	.	.	.	.	.	8e\	-dret-	8g\	-dret-
.	.	.	.	.	.	.	.	8f\	-ta e	8a\	-ta e
=6-	=6-	=6-	=6-	=6-	=6-	=6-	=6-	=6-	=6-	=6-	=6-
0r	.	.	.	0r	.	1G	-la	2g\	bel-	4bn\	bel-
.	.	.	.	.	.	.	.	.	.	2cc\	.
.	.	2g/	-la	.	.	.	.	2d\	-la	.	.
!	!	!	!	!	!	!	!	!	!	!LO:SIC:v:t=custos cc	!
.	.	.	.	.	.	.	.	.	.	4bn\	.
!	!	!	!	!	!	!	!	!	!	!LO:LB:g=original	!
*	*	*	*	*	*	*	*	*	*	*xywh-#701:4713,1770,3296,640	*
.	.	4r	.	.	.	4r	.	4r	.	2cc\	-la
.	.	4g/	Che	.	.	4c\	Che	4e\	Che	.	.
.	.	4cc\	s'hor	.	.	4A/	s'hor	4e\	s'hor	4r	.
.	.	4cc\	ſon	.	.	4F/	ſon	4f\	ſon	4a\	Che
=7-	=7-	=7-	=7-	=7-	=7-	=7-	=7-	=7-	=7-	=7-	=7-
0r	.	2dd\	ſer-	0r	.	2B-\	ſer-	2d\	ſer-	4f/	s'hor
.	.	.	.	.	.	.	.	.	.	4g/	ſon
!	!	!LO:SIC:v:t=custos a	!	!	!	!	!	!	!	!	!
.	.	2cc\	-uo	.	.	2A/	-uo	2e\	-uo	2a\	ſer-
!	!	!LO:LB:g=original	!	!	!	!	!	!	!	!	!
*	*	*xywh-#93:4610,1787,3318,722	*	*	*	*	*	*	*	*	*
.	.	4r	.	.	.	4r	.	4r	.	2a\	-uo
.	.	4.a\	i	.	.	4.d\	i	4.f\	i	.	.
.	.	.	.	.	.	.	.	.	.	4r	.
.	.	8a\	ſa-	.	.	8d\	ſa-	8f\	ſa-	.	.
!	!	!	!	!	!	!	!	!LO:SIC:v:t=custos d	!	!	!
.	.	4f/	-rei	.	.	4d\	-rei	4a\	-rei	4.dd\	i
!	!	!	!	!	!	!	!	!LO:LB:g=original	!	!	!
=8-	=8-	=8-	=8-	=8-	=8-	=8-	=8-	=8-	=8-	=8-	=8-
*	*	*	*	*	*	*	*	*xywh-#549:4644,1769,3324,705	*	*	*
0r	.	4.f/	vo	0r	.	2B-\	voſ-	2d\	voſ-	.	.
.	.	.	.	.	.	.	.	.	.	8dd\	ſa-
.	.	.	.	.	.	.	.	.	.	4dd\	-rei
.	.	8g/	.	.	.	.	.	.	.	.	.
.	.	4a\	.	.	.	2A/	-tr'an-	4e\	-tr'an-	4cc\	voſtr'an-
.	.	4cc\	ſtr'an-	.	.	.	.	2f\	-cel-	4a\	-cel-
.	.	1cc	-cel-	.	.	1c	-cel-	.	.	1g	-la
.	.	.	.	.	.	.	.	8e\	.	.	.
.	.	.	.	.	.	.	.	8d\	.	.	.
.	.	.	.	.	.	.	.	2e\	.	.	.
=9-	=9-	=9-	=9-	=9-	=9-	=9-	=9-	=9-	=9-	=9-	=9-
1r	.	1cc	-la e	1r	.	1F	-la	0f	-la	1a	E
4c\	E	4a\	quan-	4F\	E	1r	.	.	.	4cc\	quan-
2c\	quan-	2a\	-do	2F\	quan-	.	.	.	.	2cc\	-do
4f\	-do	4cc\	par-	4F\	-do	.	.	.	.	4a\	part'
=10-	=10-	=10-	=10-	=10-	=10-	=10-	=10-	=10-	=10-	=10-	=10-
4d\	part'	4b-\	-t'il	4B-\	part'	1r	.	1r	.	4f/	il
4d\	il	4b-\	ſo-	4G\	il	.	.	.	.	4g/	ſo.
!	!	!	!	!	!	!	!	!	!	!LO:SIC:v:t=custos e	!
2c#X\	ſo-	2a\	-le	2A\	ſo-	.	.	.	.	2e/	le
!	!	!	!	!	!	!	!	!	!	!LO:LB:g=original	!
*	*	*	*	*	*	*	*	*	*	*xywh-#701:4720,2319,3290,660	*
2d\	-le	1a	M'aſ-	4D/	-le	4r	.	2r	.	4d/	M'aſ-
!	!	!	!	!	!	!LO:SIC:v:t=custos d	!	!	!	!	!
.	.	.	.	4D/	M'aſ-	4d\	M'a-	.	.	4f/	-con-
!	!	!	!	!	!	!LO:LB:g=original	!	!	!	!	!
*	*	*	*	*	*	*xywh-#397:4744,1755,3310,656	*	*	*	*	*
4r	.	.	.	4.D/	-con-	4d\	-ſcon-	4r	.	4.f/	-de-
4A/	M'aſ-	.	.	.	.	4d\	-de-	4f\	M'aſ-	.	.
!	!	!	!	!LO:SIC:v:t=custos F	!	!	!	!	!	!	!
.	.	.	.	8E\	-de	.	.	.	.	8g/	-rei
!	!	!	!	!LO:LB:g=original	!	!	!	!	!	!	!
=11-	=11-	=11-	=11-	=11-	=11-	=11-	=11-	=11-	=11-	=11-	=11-
*	*	*	*	*xywh-#245:4691,1258,3342,680	*	*	*	*	*	*	*
4.A/	-con-	4r	.	4F\	rei	4c\	-rei	4.f\	-con-	4a\	M'aſ-
.	.	4f/	-con-	4.FF/	ſot-	4.c\	ſot-	.	.	4a\	-con-
8B-\	-de-	.	.	.	.	.	.	8g\	-de-	.	.
4cny\	-rei	4.f/	-de-	.	.	.	.	4a\	-rei	4.a\	-de-
.	.	.	.	8FF/	-to	8F/	-to	.	.	.	.
4.C/	ſot-	.	.	4FF/	que	4F/	que	4.A/	ſot-	.	.
.	.	8g/	-re-	.	.	.	.	.	.	8b-y\	-re-
!	!	!LO:SIC:v:t=custos f	!	!	!	!	!	!	!	!	!
.	.	4a\	-i	1FF	bian-	1F	bian-	.	.	4cc\	-i
!	!	!LO:LB:g=original	!	!	!	!	!	!	!	!	!
*	*	*xywh-#93:4610,2362,3326,687	*	*	*	*	*	*	*	*	*
8C/	-to	.	.	.	.	.	.	8A/	-to	.	.
4C/	que	4.f/	ſot-	.	.	.	.	4A/	que	4.c/	ſot-
1C/	bia(n)-	.	.	.	.	.	.	2A/	bian-	.	.
.	.	8f/	-to	.	.	.	.	.	.	8c/	-to
.	.	4f/	que	.	.	.	.	.	.	4c/	que
=12-	=12-	=12-	=12-	=12-	=12-	=12-	=12-	=12-	=12-	=12-	=12-
.	.	2f/	bian-	1FF	-chi	1F	-chi	1A	-chi	2c/	bian-
2F/	-chi	2f/	-chi	.	.	.	.	.	.	2c/	-chi
!LO:SIC:v:t=custos F	!	!	!	!	!	!	!	!	!	!	!
1F	pan-	1f	pan-	1BB-	pan-	1D	pan-	1B-	pan-	1d	pan-
!LO:LB:g=original	!	!	!	!	!	!	!	!	!	!	!
=13-	=13-	=13-	=13-	=13-	=13-	=13-	=13-	=13-	=13-	=13-	=13-
*xywh-#11:4470,1881,3305,603	*	*	*	*	*	*	*	*	*	*	*
!	!	!	!	!	!	!	!	!LO:SIC:v:t=custos a	!	!	!
1F	-ni	0f	-ni	1BB-	-ni	1D	-ni	1B-	-ni	1d	-ni
!	!	!	!	!	!	!	!	!LO:LB:g=original	!	!	!
*	*	*	*	*	*	*	*	*xywh-#549:4686,2329,3290,684	*	*	*
1r	.	.	.	1B-	Laſ-	2.d\	Laſ-	1r	.	2r	.
.	.	.	.	.	.	.	.	.	.	1dd\	Laſ-
.	.	.	.	.	.	4e\	.	.	.	.	.
=14-	=14-	=14-	=14-	=14-	=14-	=14-	=14-	=14-	=14-	=14-	=14-
1r	.	1a	Laſ-	1A	-ſo	2f\	.	2r	.	.	.
.	.	.	.	.	.	2e\	-ſo	1a	Laſ-	2cc#X\	-ſo
1A	Laſ-	2f#X/	-ſo	1D	laſ-	2r	.	.	.	2r	.
!	!	!	!	!	!	!	!	!	!	!LO:SIC:v:t=custos f#X	!
*	*	*	*	*	*	*	*	*	*	*	*ij
.	.	2r	.	.	.	2d\	Laſ-	2f#X\	-ſo	1a\	Las-
!	!	!	!	!	!	!	!	!	!	!LO:LB:g=original	!
=15-	=15-	=15-	=15-	=15-	=15-	=15-	=15-	=15-	=15-	=15-	=15-
*	*	*	*	*	*	*	*	*	*	*xywh-#701:4713,2854,3283,640	*
1A	-ſo	1a	laſ-	2C#X/	-ſo	2e\	-ſo	2r	.	.	.
.	.	.	.	4D/	ben-	4A/	ben-	4d\	ben-	2f#X/	-so
*	*	*	*	*	*	*	*	*	*	*	*Xij
.	.	.	.	2D/	-ne	2A/	-ne	2d\	-ne	.	.
1r	.	4f#X/	-ſo	.	.	.	.	.	.	1r	.
!	!	!	!	!	!	!LO:SIC:v:t=custos c	!	!	!	!	!
.	.	4g/	ben	4G\	gl'af-	4B-\	gl'af-	4e\	gl'af-	.	.
!	!	!	!	!	!	!LO:LB:g=original	!	!	!	!	!
*	*	*	*	*	*	*xywh-#397:4778,2301,3276,649	*	*	*	*	*
.	.	4.a\	ne	2F\	-fan-	2c\	-fan-	2fny\	-fan-	.	.
.	.	8b-\	gl'af-	.	.	.	.	.	.	.	.
=16-	=16-	=16-	=16-	=16-	=16-	=16-	=16-	=16-	=16-	=16-	=16-
4A/	ben-	4.cc\	-fan-	0F	-ni	2c\	-ni	0f	-ni	4a\	ben-
2A/	-ne	.	.	.	.	.	.	.	.	2a\	-ne
.	.	8b-\	.	.	.	.	.	.	.	.	.
.	.	8a\	.	.	.	2r	.	.	.	.	.
.	.	8g\	.	.	.	.	.	.	.	.	.
4d\	gl'af-	8fny/	.	.	.	.	.	.	.	4b-\	gl'af-
!	!	!LO:SIC:v:t=custos a	!	!	!	!	!	!	!	!	!
.	.	8g\	.	.	.	.	.	.	.	.	.
!	!	!LO:LB:g=original	!	!	!	!	!	!	!	!	!
*	*	*xywh-#93:4601,2893,3335,687	*	*	*	*	*	*	*	*	*
2c\	-fan-	2a\	.	.	.	1r	.	.	.	2ccny\	-fan-
2c\	-ni	2a\	-ni	.	.	.	.	.	.	2cc\	-ni
=17||-	=17||-	=17||-	=17||-	=17||-	=17||-	=17||-	=17||-	=17||-	=17||-	=17||-	=17||-
*M3/1	*	*M3/1	*	*M3/1	*	*M3/1	*	*M3/1	*	*M3/1	*
*met(3)	*	*met(3)	*	*met(3)	*	*met(3)	*	*met(3)	*	*met(3)	*
!LO:TX:t=P:problem:brak caudy	!	!LO:TX:t=P:problem:brak caudy	!	!LO:TX:t=P:problem:brak caudy	!	!LO:TX:t=P:problem:brak caudy	!	!LO:TX:t=P:problem:brak caudy	!	!LO:TX:t=P:problem:brak caudy	!
2d\	Om-	2dd\	Om-	2BB-/	Om-	2B-\	Om-	2f\	Om-	2b-\	Om-
!	!	!	!	!LO:SIC:v:t=custos C	!	!	!	!	!	!	!
4A/	-br'ig-	4cc\	-br'ig-	4FF/	-br'i-	4c\	-br'ig-	4f\	-br'ig-	4a\	-br'ig-
!	!	!	!	!LO:LB:g=original	!	!	!	!	!	!	!
*	*	*	*	*xywh-#245:4682,1808,3350,698	*	*	*	*	*	*	*
4.c\	-nu-	4.cc\	-nu-	4.Cny/	-gnu-	4.G/	-nu-	4.e\	-nu-	4.g\	-nu-
8G/	-da	8cc\	-da	8C/	-da	8E/	-da	8e\	-da	8g\	-da
4B-\	d'huo(m)	4b-\	d'huom	4FF/	d'huo	4G/	d'hu-	4d\	d'hu-	4g\	d'hu-
4.F/	viu'	4.a\	viu'	4.D/	voi'	4.A/	-om	4.d\	-o(m)	4.fny/	-om
8E/	A-	8a\	A-	8AA/	A-	8A/	viu' A-	8c\	viu' A-	8cc\	viu' A-
4D/	-mor	4d/	-mor	4BB-/	-mor	4F/	-mor	4f\	-mor	4dd\	-mor
!	!	!	!	!	!	!	!	!	!	!LO:TX:t=P:problem:brak caudy	!
4E/	mi	4g/	mi	4C/	mi	4C/	mi	4e\	mi	2cc\	mi
!LO:TX:t=P:problem:brak caudy	!	!LO:TX:t=P:problem:brak caudy	!	!LO:TX:t=P:problem:brak caudy	!	!LO:TX:t=P:problem:brak caudy	!	!LO:TX:t=P:problem:brak caudy	!	!	!
!	!	!	!	!	!	!	!	!LO:SIC:v:t=custos e	!	!	!
2G/	fa-	2g\	fa-	2GG/	fa	2D/	fa-	2d\	fa-	.	.
!LO:LB:g=original	!	!	!	!	!	!	!	!LO:LB:g=original	!	!	!
*xywh-#11:4444,2371,3331,682	*	*	*	*	*	*	*	*xywh-#549:4651,2848,3317,705	*	*	*
.	.	.	.	.	.	.	.	.	.	4bn\	fa-
=18||-	=18||-	=18||-	=18||-	=18||-	=18||-	=18||-	=18||-	=18||-	=18||-	=18||-	=18||-
*M2/1	*	*M2/1	*	*M2/1	*	*M2/1	*	*M2/1	*	*M2/1	*
*met(C)	*	*met(C)	*	*met(C)	*	*met(C)	*	*met(C)	*	*met(C)	*
1G	-i	1g	-i	1C	i	1C	-i	1e	-i	1cc	-i
!	!	!	!	!	!	!	!	!	!	!LO:SIC:v:t=custos a	!
2r	.	2r	.	4F\	Ma	4r	.	1f	Ma	1a	Ma
!	!	!	!	!	!	!	!	!	!	!LO:LB:g=original	!
*	*	*	*	*	*	*	*	*	*	*xywh-#701:4713,3402,3283,647	*
.	.	.	.	8A\	non	4F/	Ma	.	.	.	.
.	.	.	.	8B-\	mi	.	.	.	.	.	.
4F/	Ma	2cc\	Ma	4c\	giun-	8A/	non	.	.	.	.
.	.	.	.	.	.	8B-\	mi	.	.	.	.
!	!	!	!	!	!	!LO:SIC:v:t=custos 	!	!	!	!	!
8A/	non	.	.	4F\	-gi	4c\	giun-	.	.	.	.
!	!	!	!	!	!	!LO:LB:g=original	!	!	!	!	!
*	*	*	*	*	*	*xywh-#397:4785,2848,3297,635	*	*	*	*	*
8B-\	mi	.	.	.	.	.	.	.	.	.	.
=19-	=19-	=19-	=19-	=19-	=19-	=19-	=19-	=19-	=19-	=19-	=19-
1c	giun-	2cc\	non	4FF/	Ma	2A/	-gi	2f\	non	2a\	non
.	.	.	.	8AA/	non	.	.	.	.	.	.
!	!	!	!	!LO:SIC:v:t=custos C	!	!	!	!	!	!	!
.	.	.	.	8BB-/	mi	.	.	.	.	.	.
!	!	!	!	!LO:LB:g=original	!	!	!	!	!	!	!
*	*	*	*	*xywh-#245:4691,2366,3350,663	*	*	*	*	*	*	*
.	.	2cc\	mi	4C/	giun-	4r	.	4e\	mi	4g/	mi
*	*	*	*	*	*	*	*ij	*	*	*	*
.	.	.	.	4FF/	-gi	4F/	Ma	2f\	giun-	2a\	giun-
!	!	!LO:SIC:v:t=custos a	!	!	!	!	!	!	!	!	!
4c\	-gi	1cc	giun-	4F\	Ma	8A/	non	.	.	.	.
!	!	!LO:LB:g=original	!	!	!	!	!	!	!	!	!
*	*	*xywh-#93:4644,3433,3291,740	*	*	*	*	*	*	*	*	*
.	.	.	.	.	.	8B-\	mi	.	.	.	.
4F/	Ma	.	.	8A\	non	4c\	giun-	4f\	-gi	4a\	-gi
.	.	.	.	8B-\	mi	.	.	.	.	.	.
8A/	non	.	.	4c\	giun-	2F/	-gi	4r	.	4r	.
*	*	*	*	*	*	*	*Xij	*	*	*	*
8B-\	mi	.	.	.	.	.	.	.	.	.	.
2c\	giun-	.	.	4F\	-gi a	.	.	4f\	Ma	4a\	Ma
=20-	=20-	=20-	=20-	=20-	=20-	=20-	=20-	=20-	=20-	=20-	=20-
.	.	2a\	-gi	1A	la	4r	.	8e\	non	8cc\	non
.	.	.	.	.	.	.	.	8d\	mi	8b-y\	mi
4F/	-gi a	.	.	.	.	4A\	Ma	2c/	giu(n)-	4a\	giu(n)-
1A	la	4r	.	.	.	8c\	non	.	.	2e/	-gi a
.	.	.	.	.	.	8d\	mi	.	.	.	.
.	.	4cc\	a	.	.	2e#X\	giu(n)-	4c/	-gi a	.	.
.	.	2cc\	la	1AA	mia	.	.	2.e\	la	2a\	la
.	.	.	.	.	.	4c\	-gi a	.	.	.	.
2A/	mia	2cc\	mia	.	.	4.c\	la	.	.	2a\	mia
.	.	.	.	.	.	.	.	4f\	mia	.	.
.	.	.	.	.	.	8c\	mia	.	.	.	.
=21-	=21-	=21-	=21-	=21-	=21-	=21-	=21-	=21-	=21-	=21-	=21-
2F/	Don-	2b-\	Don-	2BB-/	Don-	2.f\	Don-	4d\	Don-	2dd\	Don-
.	.	.	.	.	.	.	.	4d\	-na	.	.
2F/	-na	2a\	-na	2FF/	-na	.	.	2.f\	ma-	2cc\	-na
.	.	.	.	.	.	4c\	-na	.	.	.	.
1G	.	1g	ma-	1C	ma-	1c	ma-	.	.	1cc	ma-
.	.	.	.	.	.	.	.	8e\	.	.	.
.	.	.	.	.	.	.	.	8d\	.	.	.
!	!	!	!	!	!	!	!	!LO:SIC:v:t=custos f	!	!	!
.	.	.	.	.	.	.	.	2e\	.	.	.
!	!	!	!	!	!	!	!	!LO:LB:g=original	!	!	!
=22-	=22-	=22-	=22-	=22-	=22-	=22-	=22-	=22-	=22-	=22-	=22-
*	*	*	*	*	*	*	*	*xywh-#549:4707,3352,3262,739	*	*	*
1F	mai	1a	-i	1FF	-i	1A	-i	1f	-i	1cc	-i
2r	.	2r	.	4F\	Ma	4r	.	2r	.	1a	Ma
!	!	!	!	!	!	!LO:SIC:v:t=custos A	!	!	!	!	!
.	.	.	.	8A\	non	4F/	Ma	.	.	.	.
!	!	!	!	!	!	!LO:LB:g=original	!	!	!	!	!
*	*	*	*	*	*	*xywh-#397:4764,3380,3338,684	*	*	*	*	*
.	.	.	.	8B-\	mi	.	.	.	.	.	.
!LO:SIC:v:t=custos A	!	!	!	!	!	!	!	!	!	!	!
4F/	Ma	2cc\	Ma	4c\	giun-	8A/	non	2f\	Ma	.	.
!LO:LB:g=original	!	!	!	!	!	!	!	!	!	!	!
*xywh-#11:4488,2957,3279,647	*	*	*	*	*	*	*	*	*	*	*
.	.	.	.	.	.	8B-\	mi	.	.	.	.
8A/	non	.	.	4F\	-gi	4c\	giun-	.	.	.	.
8B-\	mi	.	.	.	.	.	.	.	.	.	.
=23-	=23-	=23-	=23-	=23-	=23-	=23-	=23-	=23-	=23-	=23-	=23-
!	!	!	!	!LO:SIC:v:t=custos AA	!	!	!	!	!	!	!
1c	giun-	2cc\	non	4FF/	Ma	2A/	-gi	2f\	non	2a\	non
!	!	!	!	!LO:LB:g=original	!	!	!	!	!	!	!
*	*	*	*	*xywh-#245:4673,2907,3359,715	*	*	*	*	*	*	*
.	.	.	.	8AA/	non	.	.	.	.	.	.
.	.	.	.	8BB-/	mi	.	.	.	.	.	.
.	.	2cc\	mi	4C/	giun-	4r	.	4e\	mi	4g/	mi
*	*	*	*	*	*	*	*ij	*	*	*	*
.	.	.	.	4FF/	-gi	4F/	Ma	2f\	giun-	2a\	giun-
4c\	-gi	1cc	giun-	4F\	Ma	8A/	non	.	.	.	.
.	.	.	.	.	.	8B-\	mi	.	.	.	.
!	!	!	!	!	!	!	!	!	!	!LO:SIC:v:t=custos a	!
4F/	Ma	.	.	8A\	no(n)	4c\	giun-	4f\	-gi	4a\	-gi
!	!	!	!	!	!	!	!	!	!	!LO:LB:g=original	!
*	*	*	*	*	*	*	*	*	*	*xywh-#701:4726,3977,3270,634	*
.	.	.	.	8B-\	mi	.	.	.	.	.	.
8A\	non	.	.	4c\	giun-	2F/	-gi	4r	.	4r	.
*	*	*	*	*	*	*	*Xij	*	*	*	*
8B-\	mi	.	.	.	.	.	.	.	.	.	.
2c\	giun-	.	.	4F\	-gi a	.	.	4f\	Ma	4a\	Ma
=24-	=24-	=24-	=24-	=24-	=24-	=24-	=24-	=24-	=24-	=24-	=24-
.	.	2a\	-gi	1A	la	4r	.	8e\	non	8cc\	non
.	.	.	.	.	.	.	.	8d\	mi	8b-\	mi
4F/	-gi a	.	.	.	.	4A/	Ma	2c/	giu(n)-	4a\	giu(n)-
1A	la	4r	.	.	.	8c\	non	.	.	2e/	-gi a
.	.	.	.	.	.	8d\	mi	.	.	.	.
.	.	4cc\	a	.	.	2e#X\	giu(n)-	4c/	-gi a	.	.
.	.	2cc\	la	1AA	mia	.	.	2.e\	la	2a\	la
.	.	.	.	.	.	4c\	-gi a	.	.	.	.
2A/	mia	2cc\	mia	.	.	4.c\	la	.	.	2a\	mia
.	.	.	.	.	.	.	.	4f\	mia	.	.
.	.	.	.	.	.	8c\	mia	.	.	.	.
=25-	=25-	=25-	=25-	=25-	=25-	=25-	=25-	=25-	=25-	=25-	=25-
2F/	Don-	2b-\	Don-	2BB-/	Don-	2.f\	Don-	4d\	Don-	2dd\	Don-
.	.	.	.	.	.	.	.	4d\	-na	.	.
2F/	-na	2a\	-na	2FF/	-na	.	.	2.f\	ma-	2cc\	-na
.	.	.	.	.	.	4c\	-na	.	.	.	.
1G	ma-	1g	ma-	1C	ma-	1c	ma-	.	.	1cc	ma-
.	.	.	.	.	.	.	.	8e\	.	.	.
.	.	.	.	.	.	.	.	8d\	.	.	.
.	.	.	.	.	.	.	.	2e\	.	.	.
=26-	=26-	=26-	=26-	=26-	=26-	=26-	=26-	=26-	=26-	=26-	=26-
00F	-i.	00a	-i.	00FF	-i.	00A	-i.	00f	-i.	00cc	-i.
=27-	=27-	=27-	=27-	=27-	=27-	=27-	=27-	=27-	=27-	=27-	=27-
.	.	.	.	.	.	.	.	.	.	.	.
=-	=-	=-	=-	=-	=-	=-	=-	=-	=-	=-	=-
*-	*-	*-	*-	*-	*-	*-	*-	*-	*-	*-	*-
!!!system-decoration: s1,s2,s3,s4,s5,s6
!!!ENC: Andrzej Gręziak
!!!END: 2022-06-13
!!!ENC: Julita Ruszuk
!!!END: 2022-07-26
!!!YEC: Copyright 2022 Narodowy Instytut Fryderyka Chopina (https://polishscores.org)
!!!YEM: License CC-BY-4.0 (https://creativecommons.org/licenses/by/4.0)
!!!IIIF: https://repozytorium.nifc.pl/islandora/object/pl-gd%3A57883/datastream/IIIF/view
!!!ENC-iiif: Jolanta Bujas-Poniatowska
!!!END-iiif: 2022-09-26
